src/assets/outline/Strongbox2.svg

<?xml version="1.0" encoding="UTF-8"?>
<svg width="24" height="24" viewBox="0 0 24 24" xmlns="http://www.w3.org/2000/svg">
 <path d="m15 22.75h-6c-5.43 0-7.75-2.32-7.75-7.75v-6c0-5.43 2.32-7.75 7.75-7.75h6c5.43 0 7.75 2.32 7.75 7.75v6c0 5.43-2.32 7.75-7.75 7.75zm-6-20c-4.61 0-6.25 1.64-6.25 6.25v6c0 4.61 1.64 6.25 6.25 6.25h6c4.61 0 6.25-1.64 6.25-6.25v-6c0-4.61-1.64-6.25-6.25-6.25h-6z"/>
 <path d="m16 19.75h-8c-2.42 0-3.75-1.33-3.75-3.75v-8c0-2.42 1.33-3.75 3.75-3.75h8c2.42 0 3.75 1.33 3.75 3.75v8c0 2.42-1.33 3.75-3.75 3.75zm-8-14c-1.58 0-2.25 0.67-2.25 2.25v8c0 1.58 0.67 2.25 2.25 2.25h8c1.58 0 2.25-0.67 2.25-2.25v-8c0-1.58-0.67-2.25-2.25-2.25h-8z"/>
 <path d="m7.48 15.25h-2.48c-0.41 0-0.75-0.34-0.75-0.75s0.34-0.75 0.75-0.75h2.48c0.97 0 1.75-0.79 1.75-1.75s-0.79-1.75-1.75-1.75h-2.48c-0.41 0-0.75-0.34-0.75-0.75s0.34-0.75 0.75-0.75h2.48c1.79 0 3.25 1.46 3.25 3.25s-1.45 3.25-3.25 3.25z"/>
 <path d="m19 10.74h-3c-0.41 0-0.75-0.34-0.75-0.75001 0-0.41 0.34-0.75 0.75-0.75h3c0.41 0 0.75 0.34 0.75 0.75 0 0.41001-0.34 0.75001-0.75 0.75001z"/>
 <path d="m19 14.75h-3c-0.41 0-0.75-0.34-0.75-0.75s0.34-0.75 0.75-0.75h3c0.41 0 0.75 0.34 0.75 0.75s-0.34 0.75-0.75 0.75z"/>
 <path d="m7.25 13c-0.13 0-0.26-0.03-0.38-0.08s-0.23001-0.12-0.33001-0.21c-0.19-0.19-0.28999-0.44-0.28999-0.71 0-0.26 0.10999-0.52 0.28999-0.71 0.28-0.27 0.72001-0.37 1.09-0.21 0.13 0.05 0.24001 0.12 0.33001 0.21 0.18 0.19 0.28999 0.45 0.28999 0.71 0 0.27-0.09999 0.52-0.28999 0.71-0.1 0.09-0.21001 0.16-0.33001 0.21s-0.25 0.08-0.38 0.08z"/>
</svg>

<svg width="24" height="24" viewBox="0 0 24 24"  xmlns="http://www.w3.org/2000/svg">
<path d="M15 22.75H9C3.57 22.75 1.25 20.43 1.25 15V9C1.25 3.57 3.57 1.25 9 1.25H15C20.43 1.25 22.75 3.57 22.75 9V15C22.75 20.43 20.43 22.75 15 22.75ZM9 2.75C4.39 2.75 2.75 4.39 2.75 9V15C2.75 19.61 4.39 21.25 9 21.25H15C19.61 21.25 21.25 19.61 21.25 15V9C21.25 4.39 19.61 2.75 15 2.75H9Z" />
<path d="M16 19.75H8C5.58 19.75 4.25 18.42 4.25 16V8C4.25 5.58 5.58 4.25 8 4.25H16C18.42 4.25 19.75 5.58 19.75 8V16C19.75 18.42 18.42 19.75 16 19.75ZM8 5.75C6.42 5.75 5.75 6.42 5.75 8V16C5.75 17.58 6.42 18.25 8 18.25H16C17.58 18.25 18.25 17.58 18.25 16V8C18.25 6.42 17.58 5.75 16 5.75H8Z" />
<path d="M7.48 15.25H5C4.59 15.25 4.25 14.91 4.25 14.5C4.25 14.09 4.59 13.75 5 13.75H7.48C8.45 13.75 9.23 12.96 9.23 12C9.23 11.04 8.44 10.25 7.48 10.25H5C4.59 10.25 4.25 9.91 4.25 9.5C4.25 9.09 4.59 8.75 5 8.75H7.48C9.27 8.75 10.73 10.21 10.73 12C10.73 13.79 9.28 15.25 7.48 15.25Z" />
<path d="M19 10.74H16C15.59 10.74 15.25 10.4 15.25 9.98999C15.25 9.57999 15.59 9.23999 16 9.23999H19C19.41 9.23999 19.75 9.57999 19.75 9.98999C19.75 10.4 19.41 10.74 19 10.74Z" />
<path d="M19 14.75H16C15.59 14.75 15.25 14.41 15.25 14C15.25 13.59 15.59 13.25 16 13.25H19C19.41 13.25 19.75 13.59 19.75 14C19.75 14.41 19.41 14.75 19 14.75Z" />
<path d="M7.25 13C7.12 13 6.99 12.97 6.87 12.92C6.75 12.87 6.63999 12.8 6.53999 12.71C6.34999 12.52 6.25 12.27 6.25 12C6.25 11.74 6.35999 11.48 6.53999 11.29C6.81999 11.02 7.26 10.92 7.63 11.08C7.76 11.13 7.87001 11.2 7.96001 11.29C8.14001 11.48 8.25 11.74 8.25 12C8.25 12.27 8.15001 12.52 7.96001 12.71C7.86001 12.8 7.75 12.87 7.63 12.92C7.51 12.97 7.38 13 7.25 13Z" />
</svg>
